X:83
T:One More Dance and Then... JJo8.083
%%VWML:JohnsonVol8-2184-p42-0
F:http://www.vwml.org/record/JohnsonVol8/2184/p42
Z:Transcribed by Simon Furey and Lewis Jones
Z:vmp.Simon Wilson 2013 www.village-music-project.org.uk
Z:Dance added by John Chambers 2017
M:C|
L:1/8
%Q:1/4=100
K:A
c/d/ |\
efec a2cd | e>fec dB2c/d/ |\
e>fec agfe | fedc B3 :|
|: B/c/ |\
dBgd bdcB | cAec acBA |\
cAGF EDCB, | A,dc B{B}A3 :|
W: Lead down bewteen the 2d and
W:3d Cu. .|. Lead up to the Top cast
W:off .||. hands six round .||. Right
W:and Left at Top :||:
W:
T:Trip to Paris. JJo8.084, A
O:J.Johnson 1758
B:J.Johnson Choice Collection Vol 8 1758
Z:vmp.Simon Wilson 2013 www.village-music-project.org.uk
Z:Dance added by John Chambers 2017
M:6/8
L:1/8
%Q:3/8=120
K:Bb
|: B |\
d2B def | gab fdB | Ace dcB | AGF EDC |\
B,Bd Cce | Acf dgb | agf cf=e | fcAF2 :|
|: f |\
fdB fg_a | ged {d}e2d | cBA GFE | DCB,{A,}A,2B, |\
CEA cde | DFB def | ged{d}"^tr"c3 | B3-B2 :|
W: Turn your Partner with the right hand &
W:cast off .|. foot it 4 at Bottom and hands
W:4 round .||. Lead up to the Top and cast
W:off .|. Right and Left at Top :||:
W:
